packages/storefront-lwc/src/assets/fonts/flags/1x1/bs.svg

<svg height="512" width="512" xmlns="http://www.w3.org/2000/svg" xmlns:xlink="http://www.w3.org/1999/xlink"><clipPath id="a"><path d="m56.618 26.364h480.31v480.31h-480.31z"/></clipPath><g clip-path="url(#a)" fill-rule="evenodd" transform="matrix(1.066 0 0 1.067 -60.354 -28.133)"><path d="m990.01 506.18h-980.62v-478.54h980.62z" fill="#fff"/><path d="m990.01 370.57h-980.62v-201.32h980.62z" fill="#ffe900"/><path d="m990.01 506.18h-980.62v-159.51h980.62zm0-318.89h-980.62v-159.51h980.62z" fill="#08ced6"/><path d="m8.925 25.872c2.177 0 392.37 236.97 392.37 236.97l-393.46 242.54 1.085-479.51z"/></g></svg>

<svg xmlns="http://www.w3.org/2000/svg" height="512" width="512" id="flag-icon-css-bs">
  <defs>
    <clipPath id="a">
      <path fill-opacity=".67" d="M56.618 26.364h480.31v480.31H56.618z"/>
    </clipPath>
  </defs>
  <g fill-rule="evenodd" clip-path="url(#a)" transform="matrix(1.066 0 0 1.067 -60.354 -28.133)">
    <path fill="#fff" d="M990.01 506.18H9.39V27.64h980.62z"/>
    <path fill="#ffe900" d="M990.01 370.57H9.39V169.25h980.62z"/>
    <path fill="#08ced6" d="M990.01 506.18H9.39V346.67h980.62zm0-318.89H9.39V27.78h980.62z"/>
    <path d="M8.925 25.872c2.177 0 392.37 236.97 392.37 236.97L7.835 505.382 8.92 25.872z"/>
  </g>
</svg>
